lib/flags/l/231.svg

<svg xmlns="http://www.w3.org/2000/svg" fill="none" viewBox="0 0 32 24"><mask id="231_svg__a" width="32" height="24" x="0" y="0" mask-type="alpha" maskUnits="userSpaceOnUse"><path fill="#fff" d="M0 0H32V24H0z"/></mask><g mask="url(#231_svg__a)"><path fill="#FECA00" fill-rule="evenodd" d="M0 0V24H32V0H0Z" clip-rule="evenodd"/><mask id="231_svg__b" width="32" height="24" x="0" y="0" mask-type="alpha" maskUnits="userSpaceOnUse"><path fill="#fff" fill-rule="evenodd" d="M0 0V24H32V0H0Z" clip-rule="evenodd"/></mask><g mask="url(#231_svg__b)"><path fill="#5EAA22" fill-rule="evenodd" d="M0 0V8H32V0H0Z" clip-rule="evenodd"/><path fill="#E31D1C" fill-rule="evenodd" d="M0 16V24H32V16H0Z" clip-rule="evenodd"/><path fill="#2B77B8" fill-rule="evenodd" d="M16 18C19.3137 18 22 15.3137 22 12C22 8.68629 19.3137 6 16 6C12.6863 6 10 8.68629 10 12C10 15.3137 12.6863 18 16 18Z" clip-rule="evenodd"/><path stroke="#FECA00" stroke-width="1.5" d="M16.0001 14L13.238 14.9265L14.0979 12.618L12.2245 10.382H14.8245L16.0001 8L17.1756 10.382H19.8329L17.9022 12.618L18.5875 14.9265L16.0001 14Z" clip-rule="evenodd"/><path stroke="#2B77B8" d="M15.6961 12.0345 13.6115 16.3947M15.368 11.4795H11.368M16.1215 12.8376 20.0305 14.6418M16.9667 11.8737 19.7963 8.77649"/></g></g></svg>

<svg xmlns="http://www.w3.org/2000/svg" fill="none" viewBox="0 0 32 24"><mask id="231_svg__a" width="32" height="24" x="0" y="0" maskUnits="userSpaceOnUse"><path fill="#fff" d="M0 0h32v24H0z"/></mask><g mask="url(#231_svg__a)"><path fill="#FECA00" fill-rule="evenodd" d="M0 0v24h32V0H0z" clip-rule="evenodd"/><mask id="231_svg__b" width="32" height="24" x="0" y="0" maskUnits="userSpaceOnUse"><path fill="#fff" fill-rule="evenodd" d="M0 0v24h32V0H0z" clip-rule="evenodd"/></mask><g mask="url(#231_svg__b)"><path fill="#5EAA22" fill-rule="evenodd" d="M0 0v8h32V0H0z" clip-rule="evenodd"/><path fill="#E31D1C" fill-rule="evenodd" d="M0 16v8h32v-8H0z" clip-rule="evenodd"/><path fill="#2B77B8" fill-rule="evenodd" d="M16 18a6 6 0 100-12 6 6 0 000 12z" clip-rule="evenodd"/><path stroke="#FECA00" stroke-width="1.5" d="M16 14l-2.762.927.86-2.309-1.874-2.236h2.6L16 8l1.176 2.382h2.657l-1.93 2.236.684 2.309L16 14z" clip-rule="evenodd"/><path stroke="#2B77B8" d="M15.696 12.034l-2.085 4.36m1.757-4.914h-4m4.754 1.358l3.909 1.804m-3.064-2.768l2.83-3.098"/></g></g></svg>
